assets/svg/26FD.svg

<svg xmlns="http://www.w3.org/2000/svg" viewBox="0 0 64 64" enable-background="new 0 0 64 64"><path fill="#908f90" d="m60.846 38.27c-.982-2.836-2.805-5.423-5.067-7.62.482-1.432.73-2.94.771-4.474.053-2.02-3.076-2.01-3.128 0-.022.779-.132 1.509-.312 2.202-2.229-1.655-4.681-2.973-7.092-3.843-1.904-.691-2.716 2.333-.837 3.01 2.36.852 4.656 2.184 6.688 3.846-2.063 3.706-5.472 6.732-5.761 11.371-.344 5.48 5.311 9.403 10.428 7.785 4.869-1.54 5.754-8.116 4.31-12.281m-6.486 9.521c-4.98.265-5.964-4.821-4.184-8.415 1.033-2.079 2.86-3.717 4.132-5.665 1.313 1.437 2.431 3.02 3.252 4.712 1.481 3.043 1.193 9.131-3.2 9.368"/><g fill="#bbbdbf"><path d="m61.37 36.674c-.984-2.834-2.804-5.42-5.063-7.617.475-1.435.728-2.942.767-4.474.051-2.02-3.079-2.02-3.132 0-.02.777-.132 1.505-.308 2.204-2.23-1.657-4.68-2.974-7.096-3.849-1.9-.686-2.713 2.338-.832 3.02 2.355.852 4.656 2.182 6.687 3.848-2.058 3.702-5.474 6.732-5.763 11.366-.341 5.481 5.312 9.408 10.428 7.787 4.873-1.541 5.756-8.115 4.312-12.282m-6.482 9.521c-4.986.269-5.97-4.819-4.187-8.415 1.028-2.074 2.863-3.714 4.135-5.665 1.313 1.438 2.426 3.02 3.248 4.712 1.478 3.045 1.193 9.135-3.196 9.368"/><path d="m47.14 20.18c0 3.083-2.499 5.582-5.583 5.582h-24.2c-3.084 0-5.584-2.499-5.584-5.582v-14.307c0-3.084 2.5-5.582 5.584-5.582h24.2c3.084 0 5.583 2.498 5.583 5.582v14.307z"/></g><path fill="#46b295" d="m55.809 15.648c.013-.117-.672-.172-.655-.289-2-2.246-.108-5.763.503-8.651.102-.467.423-.708.776-.77-.012-.961-.087-1.548-.246-1.574-.917-.127-3.445 10.379-4.137 15.279-.102.709-.141 1.29-.133 1.77-.105.556-.154 1.067-.132 1.482.122 2.235 4.084 1.398 6.01 1.293 1.823-.097-.14-7.813-1.988-8.54"/><path fill="#37a06b" d="m53.49 12.351l-.005-.002c-.624 2.648-1.172 5.405-1.439 7.313-.102.711-.141 1.291-.133 1.771-.105.556-.154 1.064-.132 1.479.122 2.233 4.084 1.401 6.01 1.295.078-.005.152-.026.216-.063-2.918-3.02-4.312-7.553-4.519-11.793"/><path fill="#808184" d="m45.31 19.441c0 2.765-2.245 5.01-5.01 5.01h-21.698c-2.764 0-5.01-2.241-5.01-5.01v-12.826c0-2.763 2.244-5 5.01-5h21.698c2.763 0 5.01 2.241 5.01 5v12.826"/><path fill="#d12c3d" d="m45.31 53.33c0 4.03-2.245 7.298-5.01 7.298h-21.698c-2.764 0-5.01-3.268-5.01-7.298v-18.695c0-4.02 2.244-7.293 5.01-7.293h21.698c2.763 0 5.01 3.268 5.01 7.293v18.695"/><path fill="#d0d2d3" d="m43.43 11.04c0 1.1-1.163 1.989-2.6 1.989h-11.276c-1.436 0-2.6-.889-2.6-1.989v-5.094c0-1.101 1.164-1.99 2.6-1.99h11.276c1.437 0 2.6.889 2.6 1.99v5.094"/><path fill="#6d6e6e" d="m24.558 1.611h-5.95c-2.764 0-5.01 2.241-5.01 5v12.826c0 2.765 2.244 5.01 5.01 5.01h12.432c-9.868-5.975-7.702-18.26-6.482-22.836"/><path fill="#c12b3a" d="m30.19 27.337h-11.582c-2.764 0-5.01 3.268-5.01 7.293v18.695c0 4.03 2.244 7.298 5.01 7.298h21.698c.287 0 .567-.045.845-.111-19.01-16.426-15.234-27.698-10.961-33.18"/><path fill="#6d6e6e" d="m47.05 62.785c0 .509-2.488.922-5.555.922h-24.07c-3.07 0-5.559-.413-5.559-.922v-2.354c0-.512 2.488-.922 5.559-.922h24.07c3.066 0 5.555.41 5.555.922v2.354"/><path fill="#bbbdbf" d="m52.889 15.02c0 0 .276-15.287 7.889-12.01 0 0 1.768.723-.411 1.346-4.466 1.276-7.269 8.303-5.213 10.659s-2.265 0-2.265 0"/></svg>

<?xml version="1.0" encoding="UTF-8" standalone="no"?>
<!-- Generator: Adobe Illustrator 16.0.0, SVG Export Plug-In . SVG Version: 6.00 Build 0)  -->

<svg
   xmlns:dc="http://purl.org/dc/elements/1.1/"
   xmlns:cc="http://creativecommons.org/ns#"
   xmlns:rdf="http://www.w3.org/1999/02/22-rdf-syntax-ns#"
   xmlns:svg="http://www.w3.org/2000/svg"
   xmlns="http://www.w3.org/2000/svg"
   xmlns:sodipodi="http://sodipodi.sourceforge.net/DTD/sodipodi-0.dtd"
   xmlns:inkscape="http://www.inkscape.org/namespaces/inkscape"
   version="1.1"
   id="Layer_1"
   x="0px"
   y="0px"
   width="64px"
   height="64px"
   viewBox="0 0 64 64"
   enable-background="new 0 0 64 64"
   xml:space="preserve"
   inkscape:version="0.48.5 r10040"
   sodipodi:docname="26FD.svg"
   inkscape:export-filename="D:\TESTINGEMOJI\SVGTEST\26FD.png"
   inkscape:export-xdpi="90"
   inkscape:export-ydpi="90"><metadata
   id="metadata4703"><rdf:RDF><cc:Work
       rdf:about=""><dc:format>image/svg+xml</dc:format><dc:type
         rdf:resource="http://purl.org/dc/dcmitype/StillImage" /><dc:title></dc:title></cc:Work></rdf:RDF></metadata><defs
   id="defs4701" /><sodipodi:namedview
   pagecolor="#ffffff"
   bordercolor="#666666"
   borderopacity="1"
   objecttolerance="10"
   gridtolerance="10"
   guidetolerance="10"
   inkscape:pageopacity="0"
   inkscape:pageshadow="2"
   inkscape:window-width="640"
   inkscape:window-height="480"
   id="namedview4699"
   showgrid="false"
   inkscape:zoom="3.6875"
   inkscape:cx="32"
   inkscape:cy="32"
   inkscape:window-x="461"
   inkscape:window-y="344"
   inkscape:window-maximized="0"
   inkscape:current-layer="Layer_1" />
<g
   id="g4651">
	<path
   fill="#908F90"
   d="M60.846,38.267c-0.982-2.836-2.805-5.423-5.067-7.62c0.482-1.432,0.73-2.94,0.771-4.474   c0.053-2.016-3.076-2.011-3.128,0c-0.022,0.779-0.132,1.509-0.312,2.202c-2.229-1.655-4.681-2.973-7.092-3.843   c-1.904-0.691-2.716,2.333-0.837,3.014c2.36,0.852,4.656,2.184,6.688,3.846c-2.063,3.706-5.472,6.732-5.761,11.371   c-0.344,5.48,5.311,9.403,10.428,7.785C61.405,49.008,62.29,42.432,60.846,38.267z M54.36,47.788   c-4.98,0.265-5.964-4.821-4.184-8.415c1.033-2.079,2.86-3.717,4.132-5.665c1.313,1.437,2.431,3.023,3.252,4.712   C59.041,41.463,58.753,47.551,54.36,47.788z"
   id="path4653" />
</g>
<g
   id="g4655">
	<path
   fill="#BBBDBF"
   d="M61.369,36.674c-0.984-2.834-2.804-5.42-5.063-7.617c0.475-1.435,0.728-2.942,0.767-4.474   c0.051-2.02-3.079-2.015-3.132,0c-0.02,0.777-0.132,1.505-0.308,2.204c-2.23-1.657-4.68-2.974-7.096-3.849   c-1.9-0.686-2.713,2.338-0.832,3.017c2.355,0.852,4.656,2.182,6.687,3.848c-2.058,3.702-5.474,6.732-5.763,11.366   c-0.341,5.481,5.312,9.408,10.428,7.787C61.93,47.415,62.813,40.841,61.369,36.674z M54.887,46.195   c-4.986,0.269-5.97-4.819-4.187-8.415c1.028-2.074,2.863-3.714,4.135-5.665c1.313,1.438,2.426,3.025,3.248,4.712   C59.561,39.872,59.276,45.962,54.887,46.195z"
   id="path4657" />
</g>
<g
   id="g4659">
	<path
   fill="#BBBDBF"
   d="M47.142,20.182c0,3.083-2.499,5.582-5.583,5.582H17.355c-3.084,0-5.584-2.499-5.584-5.582V5.875   c0-3.084,2.5-5.582,5.584-5.582h24.203c3.084,0,5.583,2.498,5.583,5.582V20.182z"
   id="path4661" />
</g>
<g
   id="g4663">
	<path
   fill="#46B295"
   d="M55.809,15.648c0.013-0.117-0.672-0.172-0.655-0.289c-2-2.246-0.108-5.763,0.503-8.651   c0.102-0.467,0.423-0.708,0.776-0.77c-0.012-0.961-0.087-1.548-0.246-1.574c-0.917-0.127-3.445,10.379-4.137,15.279   c-0.102,0.709-0.141,1.29-0.133,1.77c-0.105,0.556-0.154,1.067-0.132,1.482c0.122,2.235,4.084,1.398,6.012,1.293   C59.62,24.091,57.657,16.375,55.809,15.648z"
   id="path4665" />
</g>
<g
   id="g4667">
	<path
   fill="#37A06B"
   d="M53.494,12.351l-0.005-0.002c-0.624,2.648-1.172,5.405-1.439,7.313c-0.102,0.711-0.141,1.291-0.133,1.771   c-0.105,0.556-0.154,1.064-0.132,1.479c0.122,2.233,4.084,1.401,6.012,1.295c0.078-0.005,0.152-0.026,0.216-0.063   C55.095,21.12,53.701,16.591,53.494,12.351z"
   id="path4669" />
</g>
<g
   id="g4671">
	<path
   fill="#808184"
   d="M45.313,19.441c0,2.765-2.245,5.006-5.008,5.006H18.607c-2.764,0-5.008-2.241-5.008-5.006V6.615   c0-2.763,2.244-5.004,5.008-5.004h21.698c2.763,0,5.008,2.241,5.008,5.004V19.441z"
   id="path4673" />
</g>
<g
   id="g4675">
	<path
   fill="#D12C3D"
   d="M45.313,53.325c0,4.03-2.245,7.298-5.008,7.298H18.607c-2.764,0-5.008-3.268-5.008-7.298V34.63   c0-4.025,2.244-7.293,5.008-7.293h21.698c2.763,0,5.008,3.268,5.008,7.293V53.325z"
   id="path4677" />
</g>
<g
   id="g4679">
	<path
   fill="#D0D2D3"
   d="M43.432,11.04c0,1.1-1.163,1.989-2.6,1.989H29.556c-1.436,0-2.6-0.889-2.6-1.989V5.946   c0-1.101,1.164-1.99,2.6-1.99h11.276c1.437,0,2.6,0.889,2.6,1.99V11.04z"
   id="path4681" />
</g>
<g
   id="g4683">
	<path
   fill="#6D6E6E"
   d="M24.558,1.611h-5.95c-2.764,0-5.008,2.241-5.008,5.004v12.826c0,2.765,2.244,5.006,5.008,5.006H31.04   C21.172,18.472,23.338,6.187,24.558,1.611z"
   id="path4685" />
</g>
<g
   id="g4687">
	<path
   fill="#C12B3A"
   d="M30.189,27.337H18.607c-2.764,0-5.008,3.268-5.008,7.293v18.695c0,4.03,2.244,7.298,5.008,7.298h21.698   c0.287,0,0.567-0.045,0.845-0.111C22.142,44.086,25.916,32.814,30.189,27.337z"
   id="path4689" />
</g>
<g
   id="g4691">
	<path
   fill="#6D6E6E"
   d="M47.049,62.785c0,0.509-2.488,0.922-5.555,0.922H17.419c-3.07,0-5.559-0.413-5.559-0.922v-2.354   c0-0.512,2.488-0.922,5.559-0.922h24.075c3.066,0,5.555,0.41,5.555,0.922V62.785z"
   id="path4693" />
</g>
<g
   id="g4695">
	<path
   fill="#BBBDBF"
   d="M52.889,15.023c0,0,0.276-15.287,7.889-12.005c0,0,1.768,0.723-0.411,1.346   c-4.466,1.276-7.269,8.303-5.213,10.659S52.889,15.023,52.889,15.023z"
   id="path4697" />
</g>
</svg>
